icons/baby_0306m_fill.svg

<svg width="48" height="48" viewBox="0 0 48 48" fill="none" xmlns="http://www.w3.org/2000/svg">
<path fill-rule="evenodd" clip-rule="evenodd" d="M17.8 26.5999C19.1255 27.594 19.3941 29.4744 18.4 30.7999L15.4 34.7999C14.8334 35.5553 13.9443 35.9999 13 35.9999H9C7.34315 35.9999 6 34.6568 6 32.9999C6 31.3431 7.34315 29.9999 9 29.9999H11.5L13.6 27.1999C14.5941 25.8744 16.4745 25.6058 17.8 26.5999Z" fill="black"/>
<path d="M39.474 30.3934H36.2699L35.7002 30.1313C34.2406 28.5093 31.8761 24.9827 29.895 23.772C29.0572 23.2597 28.1152 22.994 27.1587 23.0001H27.154H21.5L22.0859 36H26.8148H26.8159C27.5967 35.9986 28.3694 35.8231 29.0878 35.4836C29.8066 35.1442 30.4566 34.6477 30.999 34.0237L31.5685 33.3686C32.2876 34.1678 32.9516 36 34.0189 36H39.6078C40.2779 36 40.7864 35.7047 41.2603 35.179C41.7339 34.6532 42.0001 33.9401 42.0001 33.1967C42.0001 32.4533 41.7339 31.7402 41.2603 31.2146C40.7864 30.6887 40.144 30.3934 39.474 30.3934Z" fill="black"/>
<path d="M40 15.5C40 19.0899 37.0899 22 33.5 22C29.9101 22 27 19.0899 27 15.5C27 11.9101 29.9101 9 33.5 9C37.0899 9 40 11.9101 40 15.5Z" fill="black"/>
<path fill-rule="evenodd" clip-rule="evenodd" d="M33.5 20C35.9853 20 38 17.9853 38 15.5C38 13.0147 35.9853 11 33.5 11C31.0147 11 29 13.0147 29 15.5C29 17.9853 31.0147 20 33.5 20ZM33.5 22C37.0899 22 40 19.0899 40 15.5C40 11.9101 37.0899 9 33.5 9C29.9101 9 27 11.9101 27 15.5C27 19.0899 29.9101 22 33.5 22Z" fill="black"/>
</svg>

<svg
  xmlns="http://www.w3.org/2000/svg"
  width="24"
  height="24"
  viewBox="0 0 24 24"
  fill="none"
  stroke="currentColor"
  stroke-width="2"
  stroke-linecap="round"
  stroke-linejoin="round"
>
  <path
    fill-rule="evenodd"
    d="M17.8 26.6a3 3 0 0 1 .6 4.2l-3 4A3 3 0 0 1 13 36H9a3 3 0 1 1 0-6h2.5l2.1-2.8a3 3 0 0 1 4.2-.6"
    clip-rule="evenodd"
  />
  <path d="M39.474 30.393H36.27l-.57-.262c-1.46-1.622-3.824-5.148-5.805-6.359A5.17 5.17 0 0 0 27.159 23H21.5l.586 13h4.729a5.3 5.3 0 0 0 2.273-.516 5.85 5.85 0 0 0 1.911-1.46l.57-.655c.719.799 1.383 2.631 2.45 2.631h5.589c.67 0 1.178-.295 1.652-.821s.74-1.239.74-1.982c0-.744-.266-1.457-.74-1.982-.474-.526-1.116-.822-1.786-.822" />
  <path d="M40 15.5a6.5 6.5 0 1 1-13 0 6.5 6.5 0 0 1 13 0" />
  <path
    fill-rule="evenodd"
    d="M33.5 20a4.5 4.5 0 1 0 0-9 4.5 4.5 0 0 0 0 9m0 2a6.5 6.5 0 1 0 0-13 6.5 6.5 0 0 0 0 13"
    clip-rule="evenodd"
  />
</svg>
